**kern	**kern	**kern
*staff3	*staff2	*staff1
*tb32	*tb32	*tb32
*clefF4	*clefF4	*clefG2
*k[f#c#g#]	*k[f#c#g#]	*k[f#c#g#]
*M2/4	*M2/4	*M2/4
*A:	*A:	*A:
8eJ)	8r	16r
.	.	(16b
=308	=308	=308
16r	2r	8.b#L
(16ALK	.	.
8eJ	.	.
.	.	.
.	.	16cc#Jk
*clefG2	*	*
16r	.	8.eeL
16aLK	.	.
8BJ	.	.
.	.	16dd#Jk
=309	=309	=309
16r	2r	8.ff#L
16eLK	.	.
8g#J	.	.
.	.	16eeJk
16r	.	8gg#)
16eLK	.	.
8G#J)	.	16r
.	.	(16b
*clefF4	*	*
=310	=310	=310
16r	2r	8.b#L
(16AALK	.	.
8AJ	.	.
.	.	16cc#Jk
16r	.	8.eeL
16BBLK	.	.
8BJ	.	.
.	.	16dd#Jk
=311	=311	=311
16r	2r	8.ff#L
16GG#LK	.	.
8G#J	.	.
.	.	16eeJk
16r	.	8bb)
16EELK	.	.
8EJ)	.	16r
.	.	(16b
*clefG2	*	*
=312	=312	=312
16r	2r	8.b#L
(16ALK	.	.
8eJ	.	.
.	.	16cc#Jk
16r	.	8.eeL
16aLK	.	.
8BJ	.	.
.	.	16dd#Jk
=313	=313	=313
16r	2r	8.ff#L
16eLK	.	.
8g#J	.	.
.	.	16eeJk
16r	.	8gg#)
16eLK	.	.
8G#J)	.	16r
.	.	(16b
=314	=314	=314
16r	2r	8.b#L
(16ALK	.	.
8eJ	.	.
.	.	16cc#Jk
16r	.	8.eeL
16aLK	.	.
8BJ	.	.
.	.	16dd#Jk
=315	=315	=315
16r	2r	8.ff#L
16eLK	.	.
8g#J	.	.
.	.	16eeJk
16r	.	8.gg#L
16bLK	.	.
8d#J	.	.
.	.	16ff#Jk
=316	=316	=316
16r	2r	8.aaL
16bLK	.	.
8eJ	.	.
.	.	16gg#Jk
16r	.	8.eeL
16aLK	.	.
8BJ)	.	.
.	.	16dd#Jk)
=317	=317	=317
2r;	2r;	2r;
=318	=318	=318
2r	2r	(4ee
.	.	16dd#LL
.	.	16ee
.	.	16dd#
.	.	16eeJJ)
=319	=319	=319
*-	*-	*-
